X:503
T:Lord Strathhaven
R:Strathspey
B:The Athole Collection
M:C
L:1/8
K:F
A|:F>cA>c d/c/B/A/ ~c2|F>cA>c d>G B<d|F>cA>c d/c/B/A/ ~c2|
B>c d/c/B/A/ G>AB>d:|
~f>c f/g/a/g/ f>cf>a|c>f b/a/g/f/ e<g ~g>a|~f>c f/g/a/g/ f>c~f>d|
d/c/B/A/ G>B A>FF>c|~f>c f/g/a/g/ f<c f>a|F>f b/a/g/f/ e<g ~g>a|
b>ga>e f>c~f>d|d/c/B/A/ G>B A<F~F||

